svgs/sharp-solid/school-flag.svg

<svg xmlns="http://www.w3.org/2000/svg" viewBox="0 0 576 512"><!--! Font Awesome Pro 6.6.0 by @fontawesome - https://fontawesome.com License - https://fontawesome.com/license (Commercial License) Copyright 2024 Fonticons, Inc. --><path d="M320 0l96 0 0 96-95.3 0 89.6 64L544 160l32 0 0 32 0 288 0 32-32 0-208 0 0-112c0-26.5-21.5-48-48-48s-48 21.5-48 48l0 112L32 512 0 512l0-32L0 192l0-32 32 0 133.7 0L256 95.5 256 32l0-32 32 0 32 0zm16 240a48 48 0 1 0 -96 0 48 48 0 1 0 96 0zM128 224l-64 0 0 96 64 0 0-96zm320 0l0 96 64 0 0-96-64 0zM128 352l-64 0 0 96 64 0 0-96zm384 0l-64 0 0 96 64 0 0-96z"/></svg>

<svg xmlns="http://www.w3.org/2000/svg" viewBox="0 0 576 512"><!--! Font Awesome Pro 6.4.2 by @fontawesome - https://fontawesome.com License - https://fontawesome.com/license (Commercial License) Copyright 2023 Fonticons, Inc. --><path d="M320 0h96V96H320.7l89.6 64H544h32v32V480v32H544 336V400c0-26.5-21.5-48-48-48s-48 21.5-48 48V512H32 0V480 192 160H32 165.7L256 95.5V32 0h32 32zm16 240a48 48 0 1 0 -96 0 48 48 0 1 0 96 0zM128 224H64v96h64V224zm320 0v96h64V224H448zM128 352H64v96h64V352zm384 0H448v96h64V352z"/></svg>
